X:131
%%etbk:tnset id:46,pos:3,rep:3
%%etbk:site1 http://www.thesession.org/tunes/display/426
T: Ormond Sound
Z: Piano Box Version by Martin Fleischmann (www.boxplayer.ch)
M: 4/4
L: 1/8
R: reel
K: Ador
|: "am"!1!A2 !5!ed !2!B!5!e!4!d!2!B | "G"!1!A!2!GGG !3!AG!1!E!2!G | "am"!1!A2!5!ed !2!B!1!def  | "em"!4!ggga !4!ged!4!g | 
"am"!2!e!1!A!2!A!1!A !2!B!5!e!4!d!2!B | "G"!1!A!2!G!1!E!2!F !3!G3 !4!A| "am"!1!E2!3!A!3!A !1!G!1!A!2!B!3!d| "em"!5!g!4!e!3!d!2!B "am"!1!A4:||
|: "am"!2!efge !5!agfg | !2!e2!5!ag !2!e!1!d!2!B!1!d | !2!egfa !4!g3e | "G"!1!d2!4!g!2!e !1!d!2!B!1!G!2!B |
"am"!3!c3!1!A "G"!3!d3!1!B | "am"!2!efge !5!a2 !3!ga | "em"!5!b!3!g!2!g!3!g !4!agab | !3!g!2!e!1!d!2!B "am"!1!A4:|

